;FLAVOR:Marlin
;TIME:1933
;Filament used: 1.46238m
;Layer height: 0.2
;MINX:90.01
;MINY:90.01
;MINZ:0.2
;MAXX:144.991
;MAXY:144.99
;MAXZ:30
;TARGET_MACHINE.NAME:Creality Ender-3
;Generated with Cura_SteamEngine 5.9.0
M140 S65
M105
M190 S65
M104 S200
M105
M109 S200
M82 ;absolute extrusion mode
; Ender 3 Custom Start G-code
G92 E0 ; Reset Extruder
G28 ; Home all axes
G1 Z2.0 F3000 ; Move Z Axis up little to prevent scratching of Heat Bed
G1 X0.1 Y20 Z0.3 F5000.0 ; Move to start position
G1 X0.1 Y200.0 Z0.3 F1500.0 E15 ; Draw the first line
G1 X0.4 Y200.0 Z0.3 F5000.0 ; Move to side a little
G1 X0.4 Y20 Z0.3 F1500.0 E30 ; Draw the second line
G92 E0 ; Reset Extruder
G1 Z2.0 F3000 ; Move Z Axis up little to prevent scratching of Heat Bed
G1 X5 Y20 Z0.3 F5000.0 ; Move over to prevent blob squish
G92 E0
G92 E0
G1 F2700 E-5
;LAYER_COUNT:150
;LAYER:0
M107
G0 F6000 X120.082 Y144.87 Z0.2
;TYPE:SKIRT
G1 F2700 E0
G1 F1200 X119.536 Y144.914 E0.01822
G1 X118.611 Y144.968 E0.04904
G1 X118.066 Y144.985 E0.06717
G1 X117.222 Y144.99 E0.09524
G1 X116.702 Y144.981 E0.11254
G1 X115.55 Y144.925 E0.1509
G1 X114.804 Y144.858 E0.17582
G1 X113.922 Y144.755 E0.20535
G1 X113.292 Y144.668 E0.2265
G1 X112.765 Y144.58 E0.24427
G1 X111.906 Y144.415 E0.27337
G1 X111.417 Y144.31 E0.29
G1 X110.647 Y144.124 E0.31635
G1 X110.123 Y143.984 E0.33439
G1 X109.335 Y143.751 E0.36172
G1 X108.847 Y143.593 E0.37878
G1 X108.023 Y143.305 E0.40781
G1 X107.546 Y143.126 E0.42476
G1 X106.81 Y142.829 E0.45115
G1 X106.301 Y142.606 E0.46964
G1 X105.513 Y142.238 E0.49856
G1 X104.365 Y141.65 E0.54146
G1 X103.892 Y141.388 E0.55945
G1 X103.172 Y140.963 E0.58725
G1 X102.759 Y140.706 E0.60343
G1 X102.155 Y140.31 E0.62746
G1 X101.717 Y140.008 E0.64515
G1 X100.975 Y139.469 E0.67565
G1 X100.569 Y139.159 E0.69264
G1 X99.978 Y138.683 E0.71788
G1 X99.555 Y138.324 E0.73634
G1 X98.839 Y137.684 E0.76828
G1 X98.492 Y137.36 E0.78407
G1 X97.999 Y136.878 E0.807
G1 X97.652 Y136.524 E0.82349
G1 X97.103 Y135.933 E0.85032
G1 X96.739 Y135.519 E0.86865
G1 X96.131 Y134.796 E0.90007
G1 X95.795 Y134.373 E0.91804
G1 X95.319 Y133.743 E0.9443
G1 X95.03 Y133.34 E0.96079
G1 X94.621 Y132.743 E0.98486
G1 X94.359 Y132.341 E1.00082
G1 X93.882 Y131.571 E1.03095
G1 X93.585 Y131.059 E1.05064
G1 X93.146 Y130.255 E1.0811
G1 X92.918 Y129.81 E1.09773
G1 X92.611 Y129.177 E1.12113
G1 X92.401 Y128.717 E1.13795
G1 X92.04 Y127.872 E1.16851
G1 X91.831 Y127.344 E1.1874
G1 X91.547 Y126.568 E1.21489
G1 X91.387 Y126.097 E1.23143
G1 X91.134 Y125.289 E1.25959
G1 X90.991 Y124.784 E1.27705
G1 X90.69 Y123.583 E1.31823
G1 X90.493 Y122.638 E1.35034
G1 X90.4 Y122.12 E1.36784
G1 X90.281 Y121.37 E1.3931
G1 X90.212 Y120.84 E1.41087
G1 X90.121 Y119.982 E1.43957
G1 X90.08 Y119.458 E1.45705
G1 X90.032 Y118.62 E1.48497
G1 X90.016 Y118.1 E1.50227
G1 X90.01 Y117.232 E1.53114
G1 X90.018 Y116.737 E1.54761
G1 X90.049 Y115.985 E1.57264
G1 X90.088 Y115.41 E1.59181
G1 X90.175 Y114.481 E1.62285
G1 X90.321 Y113.363 E1.66035
G1 X90.403 Y112.869 E1.677
G1 X90.583 Y111.91 E1.70945
G1 X90.7 Y111.364 E1.72803
G1 X90.869 Y110.67 E1.75178
G1 X90.996 Y110.194 E1.76817
G1 X91.224 Y109.417 E1.7951
G1 X91.378 Y108.933 E1.812
G1 X91.665 Y108.1 E1.8413
G1 X91.855 Y107.594 E1.85928
G1 X92.165 Y106.827 E1.88679
G1 X92.378 Y106.335 E1.90462
G1 X92.746 Y105.54 E1.93376
G1 X92.967 Y105.091 E1.95041
G1 X93.308 Y104.439 E1.97488
G1 X93.543 Y104.015 E1.991
G1 X93.943 Y103.329 E2.01741
G1 X94.198 Y102.913 E2.03364
G1 X94.633 Y102.24 E2.06029
G1 X94.943 Y101.785 E2.07861
G1 X95.491 Y101.026 E2.10974
G1 X95.82 Y100.594 E2.1278
G1 X96.301 Y99.994 E2.15338
G1 X96.644 Y99.59 E2.17101
G1 X97.269 Y98.886 E2.20232
G1 X97.62 Y98.509 E2.21945
G1 X98.171 Y97.949 E2.24558
G1 X99.096 Y97.075 E2.28791
G1 X99.523 Y96.702 E2.30677
G1 X100.247 Y96.098 E2.33813
G1 X100.651 Y95.778 E2.35527
G1 X101.275 Y95.307 E2.38127
G1 X101.72 Y94.99 E2.39944
G1 X102.511 Y94.455 E2.4312
G1 X103.011 Y94.136 E2.45093
G1 X104.051 Y93.523 E2.49108
G1 X104.707 Y93.165 E2.51594
G1 X105.147 Y92.939 E2.53239
G1 X105.817 Y92.614 E2.55716
G1 X106.284 Y92.401 E2.57423
G1 X107.125 Y92.041 E2.60466
G1 X107.65 Y91.833 E2.62344
G1 X108.429 Y91.548 E2.65103
G1 X108.903 Y91.387 E2.66768
G1 X109.712 Y91.134 E2.69587
G1 X110.243 Y90.984 E2.71422
G1 X111.049 Y90.776 E2.74191
G1 X111.552 Y90.66 E2.75908
G1 X112.394 Y90.487 E2.78767
G1 X113.632 Y90.281 E2.82941
G1 X114.167 Y90.211 E2.84736
G1 X115.055 Y90.118 E2.87705
G1 X116.283 Y90.035 E2.91799
G1 X116.824 Y90.017 E2.93599
G1 X117.719 Y90.01 E2.96576
G1 X118.215 Y90.018 E2.98226
G1 X119.404 Y90.071 E3.02185
G1 X120.206 Y90.143 E3.04863
G1 X121.119 Y90.251 E3.07921
G1 X121.723 Y90.335 E3.09949
G1 X122.215 Y90.417 E3.11608
G1 X123.094 Y90.583 E3.14583
G1 X123.627 Y90.697 E3.16396
G1 X124.325 Y90.867 E3.18785
G1 X124.8 Y90.994 E3.20421
G1 X125.553 Y91.214 E3.2303
G1 X126.073 Y91.38 E3.24845
G1 X127.115 Y91.745 E3.28518
G1 X127.754 Y91.992 E3.30796
G1 X128.496 Y92.305 E3.33475
G1 X129.439 Y92.738 E3.36926
G1 X129.853 Y92.941 E3.3846
G1 X130.624 Y93.346 E3.41356
G1 X131.246 Y93.695 E3.43728
G1 X131.809 Y94.027 E3.45902
G1 X132.271 Y94.315 E3.47713
G1 X133.012 Y94.804 E3.50666
G1 X133.433 Y95.096 E3.5237
G1 X134.419 Y95.83 E3.56458
G1 X135.013 Y96.308 E3.58994
G1 X135.388 Y96.624 E3.60625
G1 X135.988 Y97.155 E3.6329
G1 X136.829 Y97.951 E3.67141
G1 X137.229 Y98.358 E3.6904
G1 X137.973 Y99.154 E3.72663
G1 X138.355 Y99.588 E3.74586
G1 X138.867 Y100.201 E3.77243
G1 X139.184 Y100.598 E3.78933
G1 X139.64 Y101.201 E3.81447
G1 X139.942 Y101.622 E3.8317
G1 X140.463 Y102.385 E3.86243
G1 X140.754 Y102.835 E3.88026
G1 X141.178 Y103.527 E3.90725
G1 X141.434 Y103.971 E3.9243
G1 X141.846 Y104.73 E3.95302
G1 X142.075 Y105.178 E3.96975
G1 X142.42 Y105.891 E3.9961
G1 X142.637 Y106.369 E4.01356
G1 X142.96 Y107.129 E4.04102
G1 X143.155 Y107.621 E4.05863
G1 X143.45 Y108.428 E4.08721
G1 X143.614 Y108.912 E4.1042
G1 X143.864 Y109.715 E4.13217
G1 X144.005 Y110.204 E4.1491
G1 X144.197 Y110.941 E4.17443
G1 X144.309 Y111.414 E4.1906
G1 X144.463 Y112.137 E4.21519
G1 X144.555 Y112.623 E4.23164
G1 X144.694 Y113.477 E4.26042
G1 X144.771 Y114.031 E4.27902
G1 X144.875 Y114.976 E4.31064
G1 X144.921 Y115.552 E4.32986
G1 X144.968 Y116.378 E4.35738
G1 X144.984 Y116.878 E4.37401
G1 X144.991 Y117.717 E4.40192
G1 X144.984 Y118.217 E4.41855
G1 X144.948 Y119.008 E4.44489
G1 X144.902 Y119.698 E4.46789
G1 X144.858 Y120.197 E4.48455
G1 X144.788 Y120.815 E4.50524
G1 X144.679 Y121.632 E4.53265
G1 X144.592 Y122.164 E4.55058
G1 X144.42 Y123.071 E4.58128
G1 X144.309 Y123.589 E4.5989
G1 X144.123 Y124.356 E4.62515
G1 X143.99 Y124.854 E4.6423
G1 X143.762 Y125.63 E4.6692
G1 X143.6 Y126.132 E4.68674
G1 X143.308 Y126.967 E4.71616
G1 X143.127 Y127.45 E4.73332
G1 X142.836 Y128.17 E4.75915
G1 X142.623 Y128.661 E4.77695
G1 X142.256 Y129.454 E4.80601
G1 X142.018 Y129.935 E4.82386
G1 X141.627 Y130.679 E4.85182
G1 X141.386 Y131.111 E4.86827
G1 X141.003 Y131.762 E4.89339
G1 X140.727 Y132.205 E4.91075
G1 X140.24 Y132.949 E4.94033
G1 X139.932 Y133.393 E4.9583
G1 X139.433 Y134.075 E4.98641
G1 X139.117 Y134.485 E5.00362
G1 X138.623 Y135.095 E5.02973
G1 X138.27 Y135.509 E5.04783
G1 X137.679 Y136.168 E5.07727
G1 X137.329 Y136.541 E5.09428
G1 X136.771 Y137.105 E5.12067
G1 X136.417 Y137.446 E5.13702
G1 X135.832 Y137.987 E5.16352
G1 X135.43 Y138.338 E5.18127
G1 X134.784 Y138.877 E5.20925
G1 X134.386 Y139.193 E5.22615
G1 X133.713 Y139.702 E5.25422
G1 X133.249 Y140.033 E5.27318
G1 X132.486 Y140.546 E5.30376
G1 X132.049 Y140.825 E5.321
G1 X131.023 Y141.435 E5.3607
G1 X130.29 Y141.835 E5.38848
G1 X129.846 Y142.065 E5.40511
G1 X129.245 Y142.357 E5.42733
G1 X128.789 Y142.566 E5.44401
G1 X127.903 Y142.945 E5.47607
G1 X127.395 Y143.149 E5.49427
G1 X126.69 Y143.41 E5.51928
G1 X126.211 Y143.572 E5.53609
G1 X125.315 Y143.855 E5.56735
G1 X124.778 Y144.01 E5.58594
G1 X123.993 Y144.214 E5.61291
G1 X123.463 Y144.336 E5.631
G1 X122.581 Y144.517 E5.66095
G1 X122.06 Y144.609 E5.67855
G1 X121.276 Y144.729 E5.70493
G1 X120.082 Y144.87 E5.74491
G0 F6000 X121.229 Y144.332
G1 F1200 X120.049 Y144.471 E5.78443
G1 X119.513 Y144.515 E5.80232
G1 X118.598 Y144.568 E5.8328
G1 X118.064 Y144.585 E5.85057
G1 X117.229 Y144.59 E5.87835
G1 X116.721 Y144.581 E5.89524
G1 X115.569 Y144.525 E5.93361
G1 X114.85 Y144.461 E5.95761
G1 X113.977 Y144.359 E5.98685
G1 X113.358 Y144.273 E6.00763
G1 X112.84 Y144.187 E6.0251
G1 X111.99 Y144.024 E6.05388
G1 X111.511 Y143.921 E6.07018
G1 X110.75 Y143.737 E6.09622
G1 X110.236 Y143.6 E6.11391
G1 X109.458 Y143.37 E6.1409
G1 X108.979 Y143.215 E6.15764
G1 X108.163 Y142.93 E6.18639
G1 X107.696 Y142.755 E6.20298
G1 X106.97 Y142.462 E6.22902
G1 X106.47 Y142.244 E6.24716
G1 X105.695 Y141.882 E6.27561
G1 X104.559 Y141.3 E6.31806
G1 X104.095 Y141.043 E6.3357
G1 X103.383 Y140.623 E6.3632
G1 X102.978 Y140.371 E6.37906
G1 X102.382 Y139.981 E6.40275
G1 X101.952 Y139.684 E6.42013
G1 X101.218 Y139.151 E6.4503
G1 X100.82 Y138.847 E6.46696
G1 X100.237 Y138.378 E6.49185
G1 X99.822 Y138.026 E6.50995
G1 X99.112 Y137.391 E6.54163
G1 X98.772 Y137.074 E6.55709
G1 X98.285 Y136.598 E6.57974
G1 X97.945 Y136.251 E6.5959
G1 X97.403 Y135.669 E6.62235
G1 X97.045 Y135.262 E6.64038
G1 X96.444 Y134.547 E6.67144
G1 X96.114 Y134.132 E6.68908
G1 X95.644 Y133.51 E6.71501
G1 X95.36 Y133.114 E6.73122
G1 X94.956 Y132.524 E6.755
G1 X94.699 Y132.13 E6.77065
G1 X94.228 Y131.37 E6.80038
G1 X93.936 Y130.867 E6.81973
G1 X93.502 Y130.072 E6.84985
G1 X93.278 Y129.636 E6.86616
G1 X92.975 Y129.011 E6.88926
G1 X92.769 Y128.56 E6.90575
G1 X92.412 Y127.725 E6.93595
G1 X92.207 Y127.207 E6.95448
G1 X91.926 Y126.439 E6.98168
G1 X91.769 Y125.977 E6.99791
G1 X91.519 Y125.179 E7.02573
G1 X91.378 Y124.684 E7.04284
G1 X91.198 Y123.99 E7.06669
G1 X91.082 Y123.501 E7.08341
G1 X90.887 Y122.567 E7.11514
G1 X90.795 Y122.058 E7.13235
G1 X90.678 Y121.318 E7.15726
G1 X90.61 Y120.798 E7.17471
G1 X90.52 Y119.95 E7.20307
G1 X90.479 Y119.435 E7.22025
G1 X90.432 Y118.607 E7.24784
G1 X90.416 Y118.097 E7.26481
G1 X90.41 Y117.239 E7.29334
G1 X90.418 Y116.753 E7.30951
G1 X90.448 Y116.012 E7.33418
G1 X90.486 Y115.447 E7.35301
G1 X90.572 Y114.533 E7.38355
G1 X90.716 Y113.428 E7.42061
G1 X90.796 Y112.943 E7.43696
G1 X90.974 Y111.994 E7.46907
G1 X91.089 Y111.458 E7.48731
G1 X91.255 Y110.773 E7.51075
G1 X91.38 Y110.306 E7.52683
G1 X91.605 Y109.538 E7.55344
G1 X91.756 Y109.063 E7.57002
G1 X92.04 Y108.24 E7.59898
G1 X92.226 Y107.744 E7.6166
G1 X92.532 Y106.986 E7.64379
G1 X92.741 Y106.503 E7.66129
G1 X93.105 Y105.717 E7.6901
G1 X93.322 Y105.276 E7.70645
G1 X93.658 Y104.633 E7.73058
G1 X93.889 Y104.216 E7.74643
G1 X94.284 Y103.538 E7.77253
G1 X94.534 Y103.13 E7.78845
G1 X94.964 Y102.465 E7.81479
G1 X95.268 Y102.019 E7.83274
G1 X95.809 Y101.268 E7.86352
G1 X96.132 Y100.844 E7.88125
G1 X96.606 Y100.253 E7.90645
G1 X96.943 Y99.856 E7.92377
G1 X97.562 Y99.159 E7.95477
G1 X97.913 Y98.782 E7.97191
G1 X98.45 Y98.236 E7.99738
G1 X98.788 Y97.908 E8.01304
G1 X99.36 Y97.376 E8.03902
G1 X99.779 Y97.009 E8.05755
G1 X100.496 Y96.411 E8.0886
G1 X100.892 Y96.097 E8.10541
G1 X101.507 Y95.633 E8.13104
G1 X101.944 Y95.321 E8.14889
G1 X102.726 Y94.792 E8.1803
G1 X103.214 Y94.481 E8.19954
G1 X104.243 Y93.874 E8.23928
G1 X104.89 Y93.521 E8.26379
G1 X105.322 Y93.299 E8.27995
G1 X105.983 Y92.978 E8.30439
G1 X106.441 Y92.769 E8.32113
G1 X107.273 Y92.413 E8.35123
G1 X107.787 Y92.209 E8.36962
G1 X108.558 Y91.927 E8.39693
G1 X109.023 Y91.769 E8.41326
G1 X109.821 Y91.519 E8.44108
G1 X110.343 Y91.371 E8.45912
G1 X111.139 Y91.166 E8.48646
G1 X111.633 Y91.052 E8.50332
G1 X112.465 Y90.881 E8.53157
G1 X112.943 Y90.795 E8.54773
G1 X113.684 Y90.678 E8.57268
G1 X114.209 Y90.609 E8.59029
G1 X115.082 Y90.517 E8.61949
G1 X116.297 Y90.435 E8.65999
G1 X116.827 Y90.417 E8.67763
G1 X117.712 Y90.41 E8.70706
G1 X118.197 Y90.418 E8.7232
G1 X119.386 Y90.471 E8.76278
G1 X120.159 Y90.54 E8.7886
G1 X121.064 Y90.647 E8.81891
G1 X121.658 Y90.73 E8.83885
G1 X122.141 Y90.81 E8.85514
G1 X123.01 Y90.974 E8.88455
G1 X123.532 Y91.086 E8.90231
G1 X124.222 Y91.254 E8.92593
G1 X124.688 Y91.378 E8.94197
G1 X125.431 Y91.595 E8.96771
G1 X125.941 Y91.758 E8.98552
G1 X126.971 Y92.118 E9.02181
G1 X127.598 Y92.36 E9.04416
G1 X128.329 Y92.669 E9.07056
G1 X129.263 Y93.097 E9.10473
G1 X129.667 Y93.295 E9.11969
G1 X130.428 Y93.695 E9.14829
G1 X131.043 Y94.04 E9.17174
G1 X131.597 Y94.366 E9.19312
G1 X132.051 Y94.649 E9.21092
G1 X132.784 Y95.132 E9.24011
G1 X133.194 Y95.417 E9.25672
G1 X134.168 Y96.142 E9.2971
G1 X134.755 Y96.614 E9.32216
G1 X135.123 Y96.924 E9.33816
G1 X135.713 Y97.445 E9.36434
G1 X136.544 Y98.232 E9.40241
G1 X136.937 Y98.631 E9.42103
G1 X137.673 Y99.419 E9.4569
G1 X138.048 Y99.844 E9.47575
G1 X138.554 Y100.45 E9.50201
G1 X138.865 Y100.84 E9.5186
G1 X139.315 Y101.434 E9.54338
G1 X139.612 Y101.848 E9.56033
G1 X140.127 Y102.602 E9.5907
G1 X140.413 Y103.044 E9.60821
G1 X140.831 Y103.727 E9.63484
G1 X141.087 Y104.171 E9.65189
G1 X141.49 Y104.912 E9.67994
G1 X141.715 Y105.352 E9.69638
G1 X142.056 Y106.056 E9.7224
G1 X142.269 Y106.525 E9.73953
G1 X142.588 Y107.276 E9.76667
G1 X142.779 Y107.759 E9.78394
G1 X143.071 Y108.556 E9.81218
G1 X143.232 Y109.031 E9.82886
G1 X143.48 Y109.826 E9.85656
G1 X143.618 Y110.305 E9.87314
G1 X143.808 Y111.033 E9.89816
G1 X143.918 Y111.497 E9.91402
G1 X144.07 Y112.211 E9.9383
G1 X144.16 Y112.688 E9.95445
G1 X144.298 Y113.532 E9.98289
G1 X144.373 Y114.075 E10.00112
G1 X144.476 Y115.008 E10.03234
G1 X144.522 Y115.574 E10.05123
G1 X144.568 Y116.391 E10.07845
G1 X144.584 Y116.881 E10.09475
G1 X144.591 Y117.711 E10.12236
G1 X144.584 Y118.199 E10.13859
G1 X144.549 Y118.982 E10.16466
G1 X144.504 Y119.663 E10.18736
G1 X144.461 Y120.152 E10.20369
G1 X144.392 Y120.762 E10.2241
G1 X144.284 Y121.568 E10.25115
G1 X144.199 Y122.09 E10.26874
G1 X144.029 Y122.987 E10.29911
G1 X143.92 Y123.495 E10.31639
G1 X143.736 Y124.253 E10.34233
G1 X143.606 Y124.741 E10.35913
G1 X143.381 Y125.507 E10.38568
G1 X143.222 Y126 E10.40291
G1 X142.934 Y126.826 E10.43201
G1 X142.756 Y127.3 E10.44885
G1 X142.469 Y128.011 E10.47435
G1 X142.26 Y128.493 E10.49182
G1 X141.897 Y129.277 E10.52056
G1 X141.664 Y129.749 E10.53806
G1 X141.277 Y130.484 E10.56569
G1 X141.041 Y130.908 E10.58183
G1 X140.663 Y131.551 E10.60664
G1 X140.393 Y131.986 E10.62367
G1 X139.911 Y132.721 E10.6529
G1 X139.609 Y133.157 E10.67054
G1 X139.116 Y133.831 E10.69832
G1 X138.806 Y134.233 E10.7152
G1 X138.319 Y134.835 E10.74096
G1 X137.972 Y135.242 E10.75874
G1 X137.388 Y135.894 E10.78786
G1 X137.044 Y136.26 E10.80456
G1 X136.494 Y136.817 E10.8306
G1 X136.146 Y137.152 E10.84666
G1 X135.568 Y137.686 E10.87284
G1 X135.174 Y138.031 E10.89026
G1 X134.535 Y138.564 E10.91793
G1 X134.145 Y138.874 E10.9345
G1 X133.481 Y139.376 E10.96219
G1 X133.025 Y139.701 E10.98081
G1 X132.271 Y140.209 E11.01105
G1 X131.845 Y140.481 E11.02786
G1 X130.831 Y141.084 E11.0671
G1 X130.106 Y141.48 E11.09458
G1 X129.671 Y141.705 E11.11087
G1 X129.079 Y141.993 E11.13276
G1 X128.631 Y142.198 E11.14915
G1 X127.754 Y142.574 E11.18089
G1 X127.256 Y142.774 E11.19874
G1 X126.562 Y143.031 E11.22335
G1 X126.09 Y143.191 E11.23993
G1 X125.204 Y143.471 E11.27083
G1 X124.677 Y143.623 E11.28907
G1 X123.903 Y143.824 E11.31567
G1 X123.383 Y143.944 E11.33342
G1 X122.511 Y144.123 E11.36303
G1 X121.999 Y144.214 E11.38032
G1 X121.229 Y144.332 E11.40623
G0 F6000 X121.182 Y143.935
G1 F1200 X120.016 Y144.072 E11.44528
G1 X119.49 Y144.116 E11.46284
G1 X118.585 Y144.168 E11.49299
G1 X118.062 Y144.185 E11.51039
G1 X117.236 Y144.19 E11.53787
G1 X116.74 Y144.181 E11.55437
G1 X115.588 Y144.125 E11.59273
G1 X114.896 Y144.064 E11.61583
G1 X114.032 Y143.963 E11.64476
G1 X113.423 Y143.878 E11.66522
G1 X112.915 Y143.794 E11.68234
G1 X112.074 Y143.633 E11.71082
G1 X111.605 Y143.532 E11.72678
G1 X110.853 Y143.351 E11.7525
G1 X110.349 Y143.216 E11.76986
G1 X109.581 Y142.989 E11.79649
G1 X109.111 Y142.837 E11.81292
G1 X108.303 Y142.555 E11.84139
G1 X107.846 Y142.384 E11.85762
G1 X107.13 Y142.095 E11.8833
G1 X106.639 Y141.881 E11.90111
G1 X105.873 Y141.524 E11.92922
G1 X105.457 Y141.318 E11.94466
G1 X104.753 Y140.95 E11.97108
G1 X104.298 Y140.698 E11.98838
