;FLAVOR:Marlin
;TIME:1927
;Filament used: 1.45007m
;Layer height: 0.2
;MINX:90.009
;MINY:90.01
;MINZ:0.2
;MAXX:144.991
;MAXY:144.99
;MAXZ:30
;TARGET_MACHINE.NAME:Creality Ender-3
;Generated with Cura_SteamEngine 5.9.0
M140 S65
M105
M190 S65
M104 S200
M105
M109 S200
M82 ;absolute extrusion mode
; Ender 3 Custom Start G-code
G92 E0 ; Reset Extruder
G28 ; Home all axes
G1 Z2.0 F3000 ; Move Z Axis up little to prevent scratching of Heat Bed
G1 X0.1 Y20 Z0.3 F5000.0 ; Move to start position
G1 X0.1 Y200.0 Z0.3 F1500.0 E15 ; Draw the first line
G1 X0.4 Y200.0 Z0.3 F5000.0 ; Move to side a little
G1 X0.4 Y20 Z0.3 F1500.0 E30 ; Draw the second line
G92 E0 ; Reset Extruder
G1 Z2.0 F3000 ; Move Z Axis up little to prevent scratching of Heat Bed
G1 X5 Y20 Z0.3 F5000.0 ; Move over to prevent blob squish
G92 E0
G92 E0
G1 F2700 E-5
;LAYER_COUNT:150
;LAYER:0
M107
G0 F6000 X120.082 Y144.87 Z0.2
;TYPE:SKIRT
G1 F2700 E0
G1 F1200 X119.536 Y144.914 E0.01822
G1 X118.611 Y144.968 E0.04904
G1 X118.071 Y144.984 E0.06701
G1 X117.222 Y144.99 E0.09524
G1 X116.702 Y144.981 E0.11254
G1 X115.55 Y144.925 E0.1509
G1 X114.804 Y144.858 E0.17581
G1 X113.922 Y144.755 E0.20535
G1 X113.292 Y144.668 E0.2265
G1 X112.765 Y144.58 E0.24427
G1 X111.906 Y144.415 E0.27337
G1 X111.417 Y144.31 E0.29
G1 X110.647 Y144.124 E0.31635
G1 X110.123 Y143.984 E0.33439
G1 X109.335 Y143.751 E0.36172
G1 X108.847 Y143.593 E0.37878
G1 X108.023 Y143.305 E0.40781
G1 X107.546 Y143.126 E0.42476
G1 X106.81 Y142.829 E0.45115
G1 X106.304 Y142.608 E0.46952
G1 X105.515 Y142.24 E0.49847
G1 X105.08 Y142.025 E0.51461
G1 X104.374 Y141.655 E0.54112
G1 X103.892 Y141.386 E0.55948
G1 X103.145 Y140.945 E0.58834
G1 X102.707 Y140.672 E0.6055
G1 X102.03 Y140.226 E0.63247
G1 X101.594 Y139.922 E0.65014
G1 X100.543 Y139.138 E0.69375
G1 X99.967 Y138.674 E0.71836
G1 X99.566 Y138.334 E0.73584
G1 X98.835 Y137.683 E0.7684
G1 X98.458 Y137.329 E0.7856
G1 X97.614 Y136.483 E0.82534
G1 X97.076 Y135.903 E0.85166
G1 X96.7 Y135.475 E0.87061
G1 X96.102 Y134.758 E0.90166
G1 X95.786 Y134.359 E0.91859
G1 X95.311 Y133.73 E0.9448
G1 X95.001 Y133.298 E0.96249
G1 X94.51 Y132.574 E0.99158
G1 X94.227 Y132.135 E1.00896
G1 X93.811 Y131.45 E1.03561
G1 X93.547 Y130.992 E1.05319
G1 X93.15 Y130.264 E1.08077
G1 X92.93 Y129.835 E1.09681
G1 X92.611 Y129.177 E1.12113
G1 X92.398 Y128.711 E1.13817
G1 X92.039 Y127.87 E1.16859
G1 X91.831 Y127.344 E1.1874
G1 X91.547 Y126.568 E1.21488
G1 X91.387 Y126.097 E1.23143
G1 X91.134 Y125.289 E1.25959
G1 X90.991 Y124.785 E1.27701
G1 X90.807 Y124.08 E1.30125
G1 X90.687 Y123.563 E1.3189
G1 X90.484 Y122.583 E1.35219
G1 X90.394 Y122.081 E1.36915
G1 X90.281 Y121.368 E1.39316
G1 X90.211 Y120.833 E1.41111
G1 X90.118 Y119.945 E1.4408
G1 X90.035 Y118.721 E1.48161
G1 X90.018 Y118.219 E1.49831
G1 X90.009 Y117.432 E1.52449
G1 X90.014 Y116.936 E1.54099
G1 X90.046 Y116.056 E1.57028
G1 X90.086 Y115.443 E1.59071
G1 X90.174 Y114.494 E1.62241
G1 X90.321 Y113.363 E1.66034
G1 X90.403 Y112.869 E1.677
G1 X90.583 Y111.91 E1.70945
G1 X90.7 Y111.364 E1.72802
G1 X90.869 Y110.67 E1.75178
G1 X90.996 Y110.194 E1.76816
G1 X91.224 Y109.417 E1.7951
G1 X91.378 Y108.933 E1.81199
G1 X91.665 Y108.1 E1.84129
G1 X91.855 Y107.594 E1.85927
G1 X92.165 Y106.827 E1.88679
G1 X92.378 Y106.335 E1.90462
G1 X92.746 Y105.54 E1.93376
G1 X92.967 Y105.091 E1.9504
G1 X93.308 Y104.439 E1.97487
G1 X93.543 Y104.015 E1.991
G1 X93.943 Y103.329 E2.01741
G1 X94.198 Y102.913 E2.03364
G1 X94.633 Y102.24 E2.06029
G1 X94.943 Y101.785 E2.0786
G1 X95.491 Y101.026 E2.10974
G1 X95.82 Y100.594 E2.1278
G1 X96.301 Y99.994 E2.15338
G1 X96.644 Y99.59 E2.171
G1 X97.269 Y98.886 E2.20231
G1 X97.62 Y98.509 E2.21945
G1 X98.171 Y97.949 E2.24558
G1 X98.516 Y97.615 E2.26155
G1 X99.096 Y97.077 E2.28786
G1 X99.524 Y96.701 E2.30681
G1 X100.241 Y96.103 E2.33786
G1 X100.641 Y95.786 E2.35484
G1 X101.282 Y95.302 E2.38155
G1 X101.695 Y95.006 E2.39845
G1 X102.351 Y94.558 E2.42487
G1 X102.739 Y94.307 E2.44024
G1 X103.376 Y93.917 E2.46508
G1 X104.26 Y93.409 E2.499
G1 X105.224 Y92.901 E2.53524
G1 X105.987 Y92.536 E2.56337
G1 X107.139 Y92.036 E2.60514
G1 X107.646 Y91.835 E2.62328
G1 X108.438 Y91.546 E2.65132
G1 X108.912 Y91.386 E2.66796
G1 X109.715 Y91.136 E2.69593
G1 X110.204 Y90.995 E2.71286
G1 X110.943 Y90.803 E2.73825
G1 X111.481 Y90.676 E2.75664
G1 X112.409 Y90.485 E2.78815
G1 X112.939 Y90.391 E2.80605
G1 X113.712 Y90.271 E2.83207
G1 X114.189 Y90.209 E2.84807
G1 X115.011 Y90.121 E2.87557
G1 X115.551 Y90.079 E2.89358
G1 X116.376 Y90.032 E2.92107
G1 X116.89 Y90.016 E2.93817
G1 X117.726 Y90.01 E2.96598
G1 X118.215 Y90.018 E2.98224
G1 X118.983 Y90.049 E3.00781
G1 X119.848 Y90.108 E3.03664
G1 X121.062 Y90.243 E3.07727
G1 X121.701 Y90.331 E3.09872
G1 X122.237 Y90.42 E3.1168
G1 X123.097 Y90.585 E3.14592
G1 X123.588 Y90.692 E3.16263
G1 X124.36 Y90.879 E3.18905
G1 X124.87 Y91.015 E3.20661
G1 X125.657 Y91.247 E3.2339
G1 X126.153 Y91.407 E3.25123
G1 X126.977 Y91.695 E3.28027
G1 X127.454 Y91.874 E3.29721
G1 X128.19 Y92.171 E3.32361
G1 X128.692 Y92.39 E3.34182
G1 X129.832 Y92.93 E3.38378
G1 X130.731 Y93.408 E3.41764
G1 X131.646 Y93.93 E3.45268
G1 X132.2 Y94.27 E3.4743
G1 X132.941 Y94.755 E3.50376
G1 X133.383 Y95.062 E3.52166
G1 X134.063 Y95.559 E3.54967
G1 X134.467 Y95.87 E3.56663
G1 X135.095 Y96.376 E3.59345
G1 X135.506 Y96.726 E3.61141
G1 X136.171 Y97.323 E3.64113
G1 X136.873 Y97.993 E3.67341
G1 X137.235 Y98.362 E3.6906
G1 X137.977 Y99.159 E3.72682
G1 X138.355 Y99.588 E3.74583
G1 X138.867 Y100.201 E3.7724
G1 X139.184 Y100.598 E3.7893
G1 X139.64 Y101.201 E3.81444
G1 X139.942 Y101.622 E3.83167
G1 X140.463 Y102.385 E3.8624
G1 X140.754 Y102.835 E3.88023
G1 X141.178 Y103.527 E3.90722
G1 X141.434 Y103.971 E3.92427
G1 X141.846 Y104.73 E3.95299
G1 X142.075 Y105.178 E3.96972
G1 X142.42 Y105.891 E3.99607
G1 X142.637 Y106.369 E4.01353
G1 X142.96 Y107.129 E4.04099
G1 X143.155 Y107.621 E4.0586
G1 X143.45 Y108.428 E4.08717
G1 X143.614 Y108.912 E4.10417
G1 X143.864 Y109.715 E4.13214
G1 X144.005 Y110.204 E4.14907
G1 X144.197 Y110.941 E4.1744
G1 X144.309 Y111.414 E4.19057
G1 X144.463 Y112.137 E4.21515
G1 X144.555 Y112.623 E4.23161
G1 X144.694 Y113.477 E4.26038
G1 X144.771 Y114.031 E4.27899
G1 X144.875 Y114.976 E4.31061
G1 X144.921 Y115.552 E4.32983
G1 X144.968 Y116.378 E4.35734
G1 X144.984 Y116.878 E4.37398
G1 X144.991 Y117.726 E4.40219
G1 X144.964 Y118.703 E4.4347
G1 X144.899 Y119.733 E4.46902
G1 X144.788 Y120.812 E4.5051
G1 X144.68 Y121.624 E4.53234
G1 X144.591 Y122.173 E4.55084
G1 X144.418 Y123.08 E4.58155
G1 X144.314 Y123.562 E4.59795
G1 X144.14 Y124.294 E4.62298
G1 X144 Y124.819 E4.64105
G1 X143.762 Y125.627 E4.66907
G1 X143.602 Y126.128 E4.68656
G1 X143.306 Y126.973 E4.71634
G1 X143.127 Y127.45 E4.73328
G1 X142.836 Y128.17 E4.75911
G1 X142.623 Y128.661 E4.77691
G1 X142.256 Y129.452 E4.80592
G1 X142.036 Y129.9 E4.82252
G1 X141.713 Y130.518 E4.84571
G1 X141.475 Y130.951 E4.86214
G1 X140.99 Y131.783 E4.89417
G1 X140.686 Y132.271 E4.9133
G1 X140.24 Y132.95 E4.94032
G1 X139.935 Y133.389 E4.9581
G1 X139.161 Y134.429 E5.00121
G1 X138.672 Y135.037 E5.02717
G1 X138.303 Y135.472 E5.04614
G1 X137.689 Y136.157 E5.07673
G1 X137.338 Y136.531 E5.09379
G1 X136.787 Y137.09 E5.1199
G1 X135.917 Y137.911 E5.15969
G1 X135.525 Y138.256 E5.17705
G1 X134.802 Y138.864 E5.20847
G1 X134.349 Y139.224 E5.22772
G1 X133.678 Y139.728 E5.25563
G1 X133.254 Y140.029 E5.27293
G1 X132.521 Y140.525 E5.30236
G1 X132.031 Y140.837 E5.32168
G1 X130.94 Y141.482 E5.36384
G1 X130.309 Y141.827 E5.38776
G1 X129.86 Y142.058 E5.40455
G1 X129.237 Y142.36 E5.42758
G1 X128.795 Y142.561 E5.44373
G1 X127.906 Y142.945 E5.47594
G1 X127.363 Y143.161 E5.49537
G1 X126.57 Y143.451 E5.52346
G1 X126.093 Y143.613 E5.54021
G1 X125.298 Y143.862 E5.56792
G1 X124.778 Y144.01 E5.5859
G1 X123.993 Y144.214 E5.61288
G1 X123.463 Y144.336 E5.63097
G1 X122.581 Y144.517 E5.66091
G1 X122.06 Y144.609 E5.67851
G1 X121.276 Y144.729 E5.70489
G1 X120.082 Y144.87 E5.74488
G0 F6000 X121.229 Y144.332
G1 F1200 X120.049 Y144.471 E5.7844
G1 X119.513 Y144.515 E5.80228
G1 X118.598 Y144.568 E5.83277
G1 X118.064 Y144.585 E5.85054
G1 X117.229 Y144.59 E5.87831
G1 X116.721 Y144.581 E5.89521
G1 X115.569 Y144.525 E5.93357
G1 X114.85 Y144.461 E5.95758
G1 X113.977 Y144.359 E5.98681
G1 X113.358 Y144.273 E6.0076
G1 X112.84 Y144.187 E6.02506
G1 X111.99 Y144.024 E6.05385
G1 X111.511 Y143.921 E6.07015
G1 X110.75 Y143.737 E6.09619
G1 X110.236 Y143.6 E6.11388
G1 X109.458 Y143.37 E6.14086
G1 X108.979 Y143.215 E6.15761
G1 X108.163 Y142.93 E6.18636
G1 X107.696 Y142.755 E6.20294
G1 X106.97 Y142.462 E6.22898
G1 X106.473 Y142.245 E6.24702
G1 X105.692 Y141.881 E6.27568
G1 X105.266 Y141.671 E6.29147
G1 X104.569 Y141.306 E6.31764
G1 X104.095 Y141.042 E6.33569
G1 X103.357 Y140.606 E6.3642
G1 X102.927 Y140.338 E6.38105
G1 X102.259 Y139.898 E6.40766
G1 X101.833 Y139.601 E6.42493
G1 X100.794 Y138.827 E6.46802
G1 X100.226 Y138.369 E6.49229
G1 X99.832 Y138.035 E6.50947
G1 X99.109 Y137.391 E6.54167
G1 X98.741 Y137.046 E6.55845
G1 X97.907 Y136.211 E6.5977
G1 X97.376 Y135.639 E6.62366
G1 X97.007 Y135.219 E6.64225
G1 X96.415 Y134.509 E6.673
G1 X96.105 Y134.118 E6.6896
G1 X95.636 Y133.497 E6.71548
G1 X95.332 Y133.073 E6.73283
G1 X94.846 Y132.357 E6.76161
G1 X94.569 Y131.927 E6.77863
G1 X94.157 Y131.25 E6.80499
G1 X93.898 Y130.801 E6.82223
G1 X93.506 Y130.081 E6.84949
G1 X93.29 Y129.66 E6.86523
G1 X92.975 Y129.011 E6.88922
G1 X92.766 Y128.554 E6.90594
G1 X92.411 Y127.723 E6.93599
G1 X92.207 Y127.207 E6.95445
G1 X91.926 Y126.439 E6.98165
G1 X91.769 Y125.977 E6.99788
G1 X91.519 Y125.179 E7.02569
G1 X91.378 Y124.684 E7.04281
G1 X91.197 Y123.989 E7.0667
G1 X91.079 Y123.482 E7.08401
G1 X90.878 Y122.512 E7.11696
G1 X90.789 Y122.019 E7.13362
G1 X90.678 Y121.316 E7.15729
G1 X90.609 Y120.791 E7.1749
G1 X90.517 Y119.918 E7.2041
G1 X90.435 Y118.707 E7.24447
G1 X90.418 Y118.214 E7.26088
G1 X90.409 Y117.436 E7.28676
G1 X90.414 Y116.95 E7.30292
G1 X90.445 Y116.082 E7.33181
G1 X90.484 Y115.48 E7.35187
G1 X90.571 Y114.545 E7.38311
G1 X90.716 Y113.428 E7.42057
G1 X90.796 Y112.943 E7.43692
G1 X90.974 Y111.994 E7.46903
G1 X91.089 Y111.458 E7.48727
G1 X91.255 Y110.773 E7.51071
G1 X91.38 Y110.306 E7.52679
G1 X91.605 Y109.538 E7.55341
G1 X91.756 Y109.063 E7.56998
G1 X92.04 Y108.24 E7.59894
G1 X92.226 Y107.744 E7.61656
G1 X92.532 Y106.986 E7.64375
G1 X92.741 Y106.503 E7.66125
G1 X93.105 Y105.717 E7.69006
G1 X93.322 Y105.276 E7.70641
G1 X93.658 Y104.633 E7.73054
G1 X93.889 Y104.216 E7.74639
G1 X94.284 Y103.538 E7.77249
G1 X94.534 Y103.13 E7.78841
G1 X94.964 Y102.465 E7.81475
G1 X95.268 Y102.019 E7.8327
G1 X95.809 Y101.268 E7.86348
G1 X96.132 Y100.844 E7.88121
G1 X96.606 Y100.253 E7.90641
G1 X96.943 Y99.856 E7.92373
G1 X97.562 Y99.159 E7.95473
G1 X97.913 Y98.782 E7.97187
G1 X98.45 Y98.236 E7.99734
G1 X98.788 Y97.908 E8.013
G1 X99.36 Y97.377 E8.03896
G1 X99.78 Y97.008 E8.05756
G1 X100.49 Y96.416 E8.0883
G1 X100.882 Y96.105 E8.10495
G1 X101.515 Y95.627 E8.13133
G1 X101.921 Y95.336 E8.14794
G1 X102.568 Y94.894 E8.174
G1 X102.948 Y94.648 E8.18906
G1 X103.575 Y94.264 E8.21351
G1 X104.447 Y93.763 E8.24696
G1 X105.397 Y93.262 E8.28268
G1 X106.146 Y92.903 E8.31031
G1 X107.286 Y92.408 E8.35165
G1 X107.783 Y92.211 E8.36943
G1 X108.566 Y91.925 E8.39715
G1 X109.031 Y91.768 E8.41348
G1 X109.826 Y91.52 E8.44118
G1 X110.305 Y91.382 E8.45776
G1 X111.035 Y91.192 E8.48284
G1 X111.562 Y91.068 E8.50085
G1 X112.479 Y90.879 E8.53199
G1 X113 Y90.786 E8.54959
G1 X113.764 Y90.668 E8.57531
G1 X114.232 Y90.607 E8.591
G1 X115.043 Y90.52 E8.61813
G1 X115.574 Y90.478 E8.63585
G1 X116.389 Y90.432 E8.663
G1 X116.893 Y90.416 E8.67977
G1 X117.719 Y90.41 E8.70724
G1 X118.199 Y90.418 E8.72321
G1 X118.956 Y90.448 E8.74841
G1 X119.804 Y90.506 E8.77668
G1 X121.007 Y90.639 E8.81694
G1 X121.636 Y90.726 E8.83805
G1 X122.162 Y90.813 E8.85579
G1 X123.012 Y90.976 E8.88457
G1 X123.494 Y91.081 E8.90098
G1 X124.257 Y91.266 E8.92709
G1 X124.757 Y91.399 E8.9443
G1 X125.534 Y91.628 E8.97124
G1 X126.021 Y91.785 E8.98826
G1 X126.837 Y92.07 E9.01701
G1 X127.304 Y92.245 E9.0336
G1 X128.03 Y92.538 E9.05964
G1 X128.521 Y92.752 E9.07745
G1 X129.644 Y93.283 E9.11877
G1 X130.533 Y93.755 E9.15225
G1 X131.437 Y94.271 E9.18687
G1 X131.981 Y94.604 E9.20808
G1 X132.713 Y95.084 E9.23719
G1 X133.147 Y95.385 E9.25476
G1 X133.819 Y95.876 E9.28244
G1 X134.216 Y96.181 E9.29909
G1 X134.836 Y96.681 E9.32558
G1 X135.239 Y97.024 E9.34319
G1 X135.895 Y97.612 E9.37249
G1 X136.587 Y98.273 E9.40432
G1 X136.942 Y98.635 E9.42118
G1 X137.677 Y99.424 E9.45704
G1 X138.048 Y99.844 E9.47568
G1 X138.554 Y100.45 E9.50194
G1 X138.865 Y100.84 E9.51853
G1 X139.315 Y101.434 E9.54332
G1 X139.612 Y101.848 E9.56026
G1 X140.127 Y102.602 E9.59063
G1 X140.413 Y103.044 E9.60814
G1 X140.831 Y103.727 E9.63478
G1 X141.087 Y104.171 E9.65182
G1 X141.49 Y104.912 E9.67988
G1 X141.715 Y105.352 E9.69631
G1 X142.056 Y106.056 E9.72233
G1 X142.269 Y106.525 E9.73946
G1 X142.588 Y107.276 E9.7666
G1 X142.779 Y107.759 E9.78388
G1 X143.071 Y108.556 E9.81211
G1 X143.232 Y109.031 E9.82879
G1 X143.48 Y109.826 E9.85649
G1 X143.618 Y110.305 E9.87307
G1 X143.808 Y111.033 E9.89809
G1 X143.918 Y111.497 E9.91395
G1 X144.07 Y112.211 E9.93823
G1 X144.16 Y112.688 E9.95438
G1 X144.298 Y113.532 E9.98282
G1 X144.373 Y114.075 E10.00105
G1 X144.476 Y115.008 E10.03228
G1 X144.522 Y115.574 E10.05116
G1 X144.568 Y116.391 E10.07838
G1 X144.584 Y116.881 E10.09469
G1 X144.591 Y117.715 E10.12242
G1 X144.565 Y118.678 E10.15447
G1 X144.501 Y119.692 E10.18826
G1 X144.392 Y120.759 E10.22393
G1 X144.285 Y121.56 E10.25081
G1 X144.198 Y122.098 E10.26894
G1 X144.027 Y122.996 E10.29934
G1 X143.925 Y123.469 E10.31543
G1 X143.753 Y124.191 E10.34012
G1 X143.616 Y124.706 E10.35785
G1 X143.381 Y125.505 E10.38555
G1 X143.224 Y125.996 E10.40269
G1 X142.932 Y126.832 E10.43214
G1 X142.756 Y127.3 E10.44877
G1 X142.469 Y128.011 E10.47428
G1 X142.26 Y128.493 E10.49175
G1 X141.897 Y129.276 E10.52045
G1 X141.682 Y129.715 E10.53671
G1 X141.363 Y130.325 E10.55961
G1 X141.129 Y130.75 E10.57574
G1 X140.65 Y131.572 E10.60739
G1 X140.352 Y132.051 E10.62615
G1 X139.911 Y132.722 E10.65286
G1 X139.614 Y133.15 E10.67018
G1 X138.849 Y134.178 E10.7128
G1 X138.367 Y134.778 E10.7384
G1 X138.005 Y135.205 E10.75702
G1 X137.398 Y135.883 E10.78729
G1 X137.053 Y136.25 E10.80404
G1 X136.508 Y136.803 E10.82986
G1 X136.174 Y137.127 E10.84534
G1 X135.653 Y137.611 E10.86899
G1 X135.268 Y137.95 E10.88606
G1 X134.553 Y138.551 E10.91712
G1 X134.109 Y138.904 E10.93599
G1 X133.446 Y139.402 E10.96357
G1 X133.03 Y139.698 E10.98055
G1 X132.306 Y140.188 E11.00963
G1 X131.827 Y140.493 E11.02851
G1 X130.748 Y141.131 E11.0702
G1 X130.126 Y141.471 E11.09378
G1 X129.685 Y141.698 E11.11028
G1 X129.071 Y141.996 E11.13298
G1 X128.637 Y142.194 E11.14884
G1 X127.758 Y142.573 E11.18068
G1 X127.226 Y142.785 E11.19973
G1 X126.441 Y143.072 E11.22753
G1 X125.973 Y143.231 E11.24397
G1 X125.188 Y143.477 E11.27133
G1 X124.677 Y143.623 E11.28901
G1 X123.903 Y143.824 E11.3156
G1 X123.383 Y143.944 E11.33335
G1 X122.511 Y144.123 E11.36296
G1 X121.999 Y144.214 E11.38026
G1 X121.229 Y144.332 E11.40617
G0 F6000 X121.182 Y143.935
G1 F1200 X120.016 Y144.072 E11.44521
G1 X119.49 Y144.116 E11.46277
G1 X118.585 Y144.168 E11.49292
G1 X118.062 Y144.185 E11.51032
G1 X117.236 Y144.19 E11.5378
G1 X116.74 Y144.181 E11.5543
G1 X115.588 Y144.125 E11.59266
G1 X114.896 Y144.064 E11.61576
G1 X114.032 Y143.963 E11.6447
G1 X113.423 Y143.878 E11.66515
G1 X112.915 Y143.794 E11.68227
G1 X112.074 Y143.633 E11.71075
G1 X111.605 Y143.532 E11.72671
G1 X110.853 Y143.351 E11.75244
G1 X110.349 Y143.216 E11.76979
G1 X109.581 Y142.989 E11.79643
G1 X109.111 Y142.837 E11.81285
G1 X108.303 Y142.555 E11.84132
G1 X107.846 Y142.384 E11.85755
G1 X107.13 Y142.095 E11.88323
G1 X106.642 Y141.882 E11.90094
G1 X105.869 Y141.522 E11.9293
G1 X105.451 Y141.316 E11.9448
G1 X104.764 Y140.957 E11.97058
G1 X104.299 Y140.698 E11.98828
G1 X103.568 Y140.266 E12.01653
G1 X103.147 Y140.004 E12.03302
G1 X102.488 Y139.57 E12.05926
G1 X102.069 Y139.278 E12.07625
G1 X101.414 Y138.798 E12.10326
G1 X101.045 Y138.515 E12.11872
G1 X100.485 Y138.064 E12.14264
G1 X100.098 Y137.736 E12.15951
