;FLAVOR:Marlin
;TIME:3398
;Filament used: 2.5207m
;Layer height: 0.2
;MINX:89.509
;MINY:89.509
;MINZ:0.2
;MAXX:145.491
;MAXY:145.491
;MAXZ:50
;TARGET_MACHINE.NAME:Creality Ender-3
;Generated with Cura_SteamEngine 5.9.0
M140 S65
M105
M190 S65
M104 S200
M105
M109 S200
M82 ;absolute extrusion mode
; Ender 3 Custom Start G-code
G92 E0 ; Reset Extruder
G28 ; Home all axes
G1 Z2.0 F3000 ; Move Z Axis up little to prevent scratching of Heat Bed
G1 X0.1 Y20 Z0.3 F5000.0 ; Move to start position
G1 X0.1 Y200.0 Z0.3 F1500.0 E15 ; Draw the first line
G1 X0.4 Y200.0 Z0.3 F5000.0 ; Move to side a little
G1 X0.4 Y20 Z0.3 F1500.0 E30 ; Draw the second line
G92 E0 ; Reset Extruder
G1 Z2.0 F3000 ; Move Z Axis up little to prevent scratching of Heat Bed
G1 X5 Y20 Z0.3 F5000.0 ; Move over to prevent blob squish
G92 E0
G92 E0
G1 F2700 E-5
;LAYER_COUNT:250
;LAYER:0
M107
G0 F6000 X120.837 Y145.291 Z0.2
;TYPE:SKIRT
G1 F2700 E0
G1 F1200 X119.95 Y145.383 E0.02966
G1 X118.767 Y145.463 E0.0691
G1 X117.451 Y145.491 E0.11288
G1 X116.889 Y145.484 E0.13157
G1 X115.937 Y145.446 E0.16326
G1 X115.401 Y145.411 E0.18112
G1 X114.546 Y145.334 E0.20968
G1 X114.024 Y145.275 E0.22715
G1 X113.201 Y145.161 E0.25478
G1 X112.67 Y145.072 E0.27269
G1 X111.82 Y144.908 E0.30148
G1 X111.356 Y144.808 E0.31727
G1 X110.549 Y144.615 E0.34487
G1 X110.013 Y144.472 E0.36332
G1 X109.161 Y144.22 E0.39287
G1 X108.692 Y144.07 E0.40925
G1 X107.947 Y143.811 E0.43548
G1 X107.448 Y143.624 E0.45321
G1 X106.568 Y143.268 E0.48478
G1 X106.075 Y143.054 E0.50265
G1 X105.348 Y142.717 E0.52931
G1 X104.86 Y142.476 E0.54741
G1 X104.043 Y142.044 E0.57815
G1 X102.991 Y141.438 E0.61853
G1 X102.552 Y141.166 E0.6357
G1 X101.881 Y140.729 E0.66234
G1 X101.433 Y140.419 E0.68046
G1 X100.634 Y139.837 E0.71333
G1 X100.214 Y139.515 E0.73094
G1 X99.586 Y139.009 E0.75776
G1 X99.19 Y138.671 E0.77508
G1 X98.538 Y138.089 E0.80415
G1 X98.154 Y137.731 E0.82161
G1 X97.553 Y137.138 E0.84969
G1 X97.211 Y136.786 E0.86601
G1 X96.687 Y136.22 E0.89167
G1 X96.32 Y135.802 E0.91017
G1 X95.72 Y135.084 E0.94129
G1 X95.38 Y134.654 E0.95952
G1 X94.88 Y133.988 E0.98722
G1 X94.6 Y133.597 E1.00322
G1 X94.164 Y132.959 E1.02892
G1 X93.886 Y132.529 E1.04595
G1 X93.397 Y131.733 E1.07702
G1 X93.137 Y131.284 E1.09428
G1 X92.791 Y130.653 E1.11821
G1 X92.566 Y130.219 E1.13447
G1 X92.156 Y129.382 E1.16547
G1 X91.918 Y128.859 E1.18458
G1 X91.556 Y128.007 E1.21537
G1 X91.368 Y127.53 E1.23242
G1 X91.084 Y126.761 E1.25969
G1 X90.904 Y126.226 E1.27846
G1 X90.635 Y125.357 E1.30872
G1 X90.5 Y124.877 E1.3253
G1 X90.288 Y124.06 E1.35338
G1 X90.168 Y123.54 E1.37113
G1 X90 Y122.722 E1.3989
G1 X89.912 Y122.227 E1.41562
G1 X89.778 Y121.373 E1.44438
G1 X89.709 Y120.837 E1.46235
G1 X89.617 Y119.95 E1.49201
G1 X89.537 Y118.772 E1.53128
G1 X89.521 Y118.308 E1.54672
G1 X89.509 Y117.451 E1.57523
G1 X89.515 Y116.911 E1.59319
G1 X89.549 Y116.017 E1.62295
G1 X89.584 Y115.472 E1.64111
G1 X89.665 Y114.558 E1.67163
G1 X89.725 Y114.024 E1.6895
G1 X89.839 Y113.201 E1.71714
G1 X89.927 Y112.677 E1.73481
G1 X90.092 Y111.816 E1.76397
G1 X90.201 Y111.314 E1.78105
G1 X90.404 Y110.482 E1.80954
G1 X90.537 Y109.982 E1.82675
G1 X90.779 Y109.163 E1.85515
G1 X90.932 Y108.687 E1.87178
G1 X91.189 Y107.946 E1.89787
G1 X91.365 Y107.476 E1.91456
G1 X91.67 Y106.713 E1.94189
G1 X91.864 Y106.261 E1.95825
G1 X92.221 Y105.477 E1.9869
G1 X92.455 Y104.998 E2.00463
G1 X92.827 Y104.279 E2.03156
G1 X93.074 Y103.83 E2.0486
G1 X93.538 Y103.032 E2.0793
G1 X93.82 Y102.576 E2.09714
G1 X94.265 Y101.891 E2.1243
G1 X94.547 Y101.477 E2.14096
G1 X95.034 Y100.802 E2.16865
G1 X95.367 Y100.367 E2.18687
G1 X95.971 Y99.614 E2.21898
G1 X96.323 Y99.197 E2.23713
G1 X96.905 Y98.545 E2.26619
G1 X97.275 Y98.148 E2.28424
G1 X97.877 Y97.54 E2.3127
G1 X98.786 Y96.684 E2.35423
G1 X99.189 Y96.328 E2.37212
G1 X99.91 Y95.726 E2.40336
G1 X100.346 Y95.38 E2.42187
G1 X101.014 Y94.878 E2.44966
G1 X101.434 Y94.579 E2.46681
G1 X102.138 Y94.102 E2.49509
G1 X102.545 Y93.84 E2.51119
G1 X103.273 Y93.394 E2.53959
G1 X103.765 Y93.109 E2.5585
G1 X104.533 Y92.694 E2.58753
G1 X104.969 Y92.471 E2.60382
G1 X105.717 Y92.11 E2.63145
G1 X106.214 Y91.884 E2.6496
G1 X107.016 Y91.547 E2.67854
G1 X107.469 Y91.369 E2.69473
G1 X108.238 Y91.085 E2.72199
G1 X108.766 Y90.907 E2.74052
G1 X109.636 Y90.637 E2.77082
G1 X110.123 Y90.5 E2.78765
G1 X110.94 Y90.288 E2.81572
G1 X111.46 Y90.168 E2.83347
G1 X112.278 Y90 E2.86125
G1 X112.773 Y89.912 E2.87797
G1 X113.627 Y89.778 E2.90672
G1 X114.163 Y89.709 E2.92469
G1 X115.05 Y89.617 E2.95435
G1 X116.228 Y89.537 E2.99363
G1 X116.692 Y89.521 E3.00907
G1 X117.549 Y89.509 E3.03757
G1 X118.111 Y89.516 E3.05627
G1 X119.063 Y89.554 E3.08796
G1 X119.599 Y89.589 E3.10582
G1 X120.454 Y89.666 E3.13437
G1 X120.976 Y89.725 E3.15185
G1 X121.799 Y89.839 E3.17948
G1 X122.33 Y89.928 E3.19739
G1 X123.18 Y90.092 E3.22618
G1 X123.644 Y90.192 E3.24197
G1 X124.451 Y90.385 E3.26957
G1 X124.987 Y90.528 E3.28802
G1 X125.839 Y90.78 E3.31757
G1 X126.308 Y90.93 E3.33395
G1 X127.053 Y91.189 E3.36018
G1 X127.552 Y91.376 E3.3779
G1 X128.432 Y91.732 E3.40948
G1 X128.925 Y91.946 E3.42735
G1 X129.652 Y92.283 E3.454
G1 X130.14 Y92.524 E3.47211
G1 X130.957 Y92.956 E3.50284
G1 X132.021 Y93.569 E3.54369
G1 X132.452 Y93.836 E3.56055
G1 X133.113 Y94.268 E3.58681
G1 X133.559 Y94.574 E3.6048
G1 X134.362 Y95.16 E3.63787
G1 X134.786 Y95.485 E3.65563
G1 X135.414 Y95.991 E3.68246
G1 X135.81 Y96.329 E3.69977
G1 X136.462 Y96.911 E3.72884
G1 X136.846 Y97.269 E3.7463
G1 X137.447 Y97.862 E3.77439
G1 X137.783 Y98.209 E3.79045
G1 X138.319 Y98.786 E3.81665
G1 X138.693 Y99.213 E3.83553
G1 X139.297 Y99.941 E3.86699
G1 X139.613 Y100.34 E3.88392
G1 X140.115 Y101.006 E3.91165
G1 X140.423 Y101.437 E3.92927
G1 X140.895 Y102.133 E3.95724
G1 X141.166 Y102.554 E3.9739
G1 X141.612 Y103.285 E4.00238
G1 X141.883 Y103.755 E4.02042
G1 X142.301 Y104.524 E4.04953
G1 X142.531 Y104.974 E4.06634
G1 X142.892 Y105.723 E4.094
G1 X143.111 Y106.207 E4.11167
G1 X143.451 Y107.01 E4.14067
G1 X143.628 Y107.458 E4.15669
G1 X143.903 Y108.202 E4.18307
G1 X144.083 Y108.733 E4.20172
G1 X144.361 Y109.629 E4.23292
G1 X144.501 Y110.125 E4.25007
G1 X144.713 Y110.944 E4.2782
G1 X144.832 Y111.46 E4.29582
G1 X145 Y112.278 E4.32359
G1 X145.088 Y112.773 E4.34031
G1 X145.222 Y113.627 E4.36906
G1 X145.291 Y114.16 E4.38694
G1 X145.383 Y115.043 E4.41647
G1 X145.466 Y116.309 E4.45867
G1 X145.482 Y116.801 E4.47504
G1 X145.491 Y117.66 E4.50361
G1 X145.483 Y118.221 E4.52227
G1 X145.444 Y119.116 E4.55207
G1 X145.411 Y119.602 E4.56827
G1 X145.343 Y120.368 E4.59385
G1 X145.286 Y120.872 E4.61072
G1 X145.165 Y121.761 E4.64056
G1 X145.075 Y122.309 E4.65903
G1 X144.912 Y123.16 E4.68785
G1 X144.81 Y123.634 E4.70397
G1 X144.617 Y124.446 E4.73173
G1 X144.473 Y124.985 E4.75029
G1 X144.22 Y125.84 E4.77994
G1 X144.07 Y126.308 E4.79629
G1 X143.811 Y127.053 E4.82252
G1 X143.626 Y127.547 E4.84007
G1 X143.277 Y128.411 E4.87106
G1 X143.063 Y128.905 E4.88897
G1 X142.719 Y129.648 E4.9162
G1 X142.476 Y130.14 E4.93445
G1 X142.044 Y130.957 E4.96519
G1 X141.431 Y132.021 E5.00603
G1 X141.143 Y132.484 E5.02417
G1 X140.643 Y133.244 E5.05442
G1 X140.342 Y133.678 E5.07199
G1 X139.827 Y134.382 E5.101
G1 X139.519 Y134.781 E5.11777
G1 X139.013 Y135.408 E5.14456
G1 X138.673 Y135.808 E5.16203
G1 X138.088 Y136.463 E5.19123
G1 X137.732 Y136.844 E5.20858
G1 X137.143 Y137.442 E5.2365
G1 X136.797 Y137.777 E5.25251
G1 X136.216 Y138.315 E5.27885
G1 X135.804 Y138.678 E5.29711
G1 X135.084 Y139.279 E5.32831
G1 X134.657 Y139.618 E5.34644
G1 X133.988 Y140.121 E5.37428
G1 X133.566 Y140.421 E5.3915
G1 X132.862 Y140.898 E5.41978
G1 X132.446 Y141.166 E5.43624
G1 X131.717 Y141.612 E5.46467
G1 X131.254 Y141.879 E5.48244
G1 X130.476 Y142.301 E5.51188
G1 X130.026 Y142.531 E5.52869
G1 X129.277 Y142.892 E5.55634
G1 X128.793 Y143.111 E5.57401
G1 X127.989 Y143.451 E5.60305
G1 X127.534 Y143.63 E5.61931
G1 X126.765 Y143.914 E5.64658
G1 X126.226 Y144.096 E5.6655
G1 X125.357 Y144.365 E5.69575
G1 X124.877 Y144.5 E5.71234
G1 X124.06 Y144.712 E5.74041
G1 X123.54 Y144.832 E5.75816
G1 X122.722 Y145 E5.78594
G1 X122.227 Y145.088 E5.80266
G1 X121.373 Y145.222 E5.83141
G1 X120.837 Y145.291 E5.84938
G0 F6000 X121.322 Y144.825
G1 F1200 X120.795 Y144.893 E5.86706
G1 X119.923 Y144.984 E5.89622
G1 X118.758 Y145.063 E5.93505
G1 X117.456 Y145.091 E5.97837
G1 X116.905 Y145.084 E5.9967
G1 X115.963 Y145.047 E6.02805
G1 X115.437 Y145.013 E6.04558
G1 X114.591 Y144.937 E6.07384
G1 X114.079 Y144.879 E6.09097
G1 X113.267 Y144.766 E6.11824
G1 X112.746 Y144.679 E6.13581
G1 X111.904 Y144.517 E6.16433
G1 X111.449 Y144.419 E6.17981
G1 X110.652 Y144.228 E6.20707
G1 X110.126 Y144.088 E6.22517
G1 X109.283 Y143.839 E6.25441
G1 X108.823 Y143.692 E6.27047
G1 X108.088 Y143.437 E6.29634
G1 X107.598 Y143.253 E6.31375
G1 X106.727 Y142.901 E6.345
G1 X106.243 Y142.691 E6.36255
G1 X105.525 Y142.358 E6.38887
G1 X105.047 Y142.122 E6.4066
G1 X104.243 Y141.697 E6.43685
G1 X103.191 Y141.091 E6.47723
G1 X102.77 Y140.831 E6.49369
G1 X102.109 Y140.4 E6.51993
G1 X101.668 Y140.095 E6.53777
G1 X100.877 Y139.52 E6.57029
G1 X100.465 Y139.204 E6.58756
G1 X99.845 Y138.704 E6.61405
G1 X99.456 Y138.373 E6.63104
G1 X98.811 Y137.797 E6.6598
G1 X98.435 Y137.446 E6.67691
G1 X97.84 Y136.859 E6.70471
G1 X97.505 Y136.514 E6.7207
G1 X96.981 Y135.948 E6.74636
G1 X96.627 Y135.546 E6.76417
G1 X96.034 Y134.836 E6.79494
G1 X95.7 Y134.414 E6.81284
G1 X95.205 Y133.755 E6.84026
G1 X94.93 Y133.372 E6.85594
G1 X94.5 Y132.742 E6.88131
G1 X94.227 Y132.32 E6.89802
G1 X93.743 Y131.532 E6.92878
G1 X93.488 Y131.092 E6.9457
G1 X93.146 Y130.469 E6.96933
G1 X92.925 Y130.043 E6.9853
G1 X92.52 Y129.217 E7.01589
G1 X92.286 Y128.702 E7.03471
G1 X91.928 Y127.86 E7.06514
G1 X91.743 Y127.392 E7.08188
G1 X91.463 Y126.633 E7.10878
G1 X91.286 Y126.108 E7.12721
G1 X91.02 Y125.248 E7.15715
G1 X90.887 Y124.777 E7.17343
G1 X90.678 Y123.97 E7.20116
G1 X90.56 Y123.46 E7.21857
G1 X90.394 Y122.652 E7.246
G1 X90.307 Y122.165 E7.26246
G1 X90.175 Y121.322 E7.29084
G1 X90.107 Y120.795 E7.30851
G1 X90.016 Y119.923 E7.33767
G1 X89.937 Y118.758 E7.37651
G1 X89.921 Y118.302 E7.39168
G1 X89.909 Y117.456 E7.41982
G1 X89.915 Y116.926 E7.43745
G1 X89.948 Y116.042 E7.46688
G1 X89.982 Y115.507 E7.48471
G1 X90.062 Y114.603 E7.51489
G1 X90.121 Y114.079 E7.53243
G1 X90.234 Y113.267 E7.5597
G1 X90.32 Y112.752 E7.57706
G1 X90.483 Y111.901 E7.60588
G1 X90.59 Y111.408 E7.62266
G1 X90.79 Y110.585 E7.65083
G1 X90.921 Y110.095 E7.6677
G1 X91.16 Y109.285 E7.69579
G1 X91.31 Y108.818 E7.7121
G1 X91.564 Y108.086 E7.73787
G1 X91.736 Y107.624 E7.75427
G1 X92.037 Y106.871 E7.78124
G1 X92.228 Y106.427 E7.79732
G1 X92.581 Y105.652 E7.82564
G1 X92.81 Y105.182 E7.84303
G1 X93.177 Y104.472 E7.86961
G1 X93.42 Y104.031 E7.88636
G1 X93.878 Y103.242 E7.9167
G1 X94.155 Y102.794 E7.93422
G1 X94.596 Y102.116 E7.96112
G1 X94.872 Y101.711 E7.97743
G1 X95.352 Y101.045 E8.00473
G1 X95.679 Y100.617 E8.02264
G1 X96.277 Y99.872 E8.05442
G1 X96.622 Y99.463 E8.07222
G1 X97.197 Y98.818 E8.10096
G1 X97.56 Y98.429 E8.11865
G1 X98.151 Y97.831 E8.14662
G1 X99.051 Y96.984 E8.18772
G1 X99.446 Y96.635 E8.20525
G1 X100.159 Y96.039 E8.23616
G1 X100.586 Y95.7 E8.25429
G1 X101.246 Y95.204 E8.28175
G1 X101.659 Y94.91 E8.29862
G1 X102.355 Y94.438 E8.32659
G1 X102.754 Y94.181 E8.34237
G1 X103.474 Y93.74 E8.37045
G1 X103.955 Y93.461 E8.38895
G1 X104.715 Y93.05 E8.41769
G1 X105.143 Y92.831 E8.43368
G1 X105.882 Y92.474 E8.46097
G1 X106.369 Y92.253 E8.47876
G1 X107.162 Y91.919 E8.50738
G1 X107.607 Y91.744 E8.52328
G1 X108.366 Y91.464 E8.55019
G1 X108.884 Y91.289 E8.56838
G1 X109.745 Y91.022 E8.59836
G1 X110.223 Y90.887 E8.61488
G1 X111.03 Y90.678 E8.64261
G1 X111.54 Y90.56 E8.66002
G1 X112.348 Y90.394 E8.68745
G1 X112.835 Y90.307 E8.70391
G1 X113.678 Y90.175 E8.73229
G1 X114.205 Y90.107 E8.74996
G1 X115.077 Y90.016 E8.77912
G1 X116.242 Y89.937 E8.81796
G1 X116.698 Y89.921 E8.83313
G1 X117.544 Y89.909 E8.86127
G1 X118.095 Y89.916 E8.8796
G1 X119.037 Y89.953 E8.91096
G1 X119.563 Y89.987 E8.92849
G1 X120.409 Y90.063 E8.95674
G1 X120.921 Y90.121 E8.97388
G1 X121.733 Y90.234 E9.00114
G1 X122.254 Y90.321 E9.01871
G1 X123.096 Y90.483 E9.04723
G1 X123.551 Y90.581 E9.06271
G1 X124.348 Y90.772 E9.08997
G1 X124.874 Y90.912 E9.10808
G1 X125.717 Y91.161 E9.13731
G1 X126.177 Y91.308 E9.15337
G1 X126.912 Y91.563 E9.17925
G1 X127.402 Y91.747 E9.19666
G1 X128.273 Y92.099 E9.2279
G1 X128.757 Y92.309 E9.24545
G1 X129.475 Y92.642 E9.27178
G1 X129.953 Y92.878 E9.28951
G1 X130.757 Y93.303 E9.31975
G1 X131.81 Y93.909 E9.36016
G1 X132.233 Y94.171 E9.37671
G1 X132.887 Y94.598 E9.40269
G1 X133.323 Y94.897 E9.42027
G1 X134.119 Y95.477 E9.45303
G1 X134.535 Y95.796 E9.47047
G1 X135.155 Y96.296 E9.49696
G1 X135.544 Y96.627 E9.51395
G1 X136.189 Y97.203 E9.54271
G1 X136.565 Y97.554 E9.55982
G1 X137.16 Y98.14 E9.58759
G1 X137.49 Y98.481 E9.60337
G1 X138.018 Y99.05 E9.62919
G1 X138.385 Y99.469 E9.64772
G1 X138.984 Y100.19 E9.6789
G1 X139.294 Y100.581 E9.69549
G1 X139.79 Y101.239 E9.7229
G1 X140.092 Y101.661 E9.74016
G1 X140.559 Y102.35 E9.76784
G1 X140.825 Y102.763 E9.78418
G1 X141.266 Y103.485 E9.81232
G1 X141.532 Y103.946 E9.83002
G1 X141.945 Y104.706 E9.85879
G1 X142.171 Y105.148 E9.8753
G1 X142.528 Y105.888 E9.90263
G1 X142.743 Y106.363 E9.91997
G1 X143.079 Y107.157 E9.94865
G1 X143.253 Y107.597 E9.96438
G1 X143.524 Y108.33 E9.99038
G1 X143.701 Y108.852 E10.00871
G1 X143.976 Y109.738 E10.03956
G1 X144.114 Y110.225 E10.0564
G1 X144.323 Y111.034 E10.08419
G1 X144.44 Y111.54 E10.10146
G1 X144.606 Y112.348 E10.1289
G1 X144.693 Y112.835 E10.14535
G1 X144.825 Y113.678 E10.17373
G1 X144.893 Y114.202 E10.19131
G1 X144.984 Y115.074 E10.22047
G1 X145.022 Y115.56 E10.23668
G1 X145.066 Y116.322 E10.26207
G1 X145.082 Y116.805 E10.27814
G1 X145.091 Y117.654 E10.30638
G1 X145.083 Y118.204 E10.32468
G1 X145.045 Y119.089 E10.35414
G1 X145.013 Y119.567 E10.37007
G1 X144.946 Y120.323 E10.39532
G1 X144.89 Y120.818 E10.41188
G1 X144.77 Y121.696 E10.44136
G1 X144.682 Y122.234 E10.45949
G1 X144.521 Y123.076 E10.488
G1 X144.421 Y123.541 E10.50382
G1 X144.23 Y124.343 E10.53124
G1 X144.089 Y124.872 E10.54945
G1 X143.839 Y125.718 E10.57879
G1 X143.692 Y126.177 E10.59482
G1 X143.437 Y126.912 E10.6207
G1 X143.255 Y127.397 E10.63793
G1 X142.91 Y128.252 E10.66859
G1 X142.7 Y128.737 E10.68617
G1 X142.36 Y129.471 E10.71308
G1 X142.122 Y129.953 E10.73096
G1 X141.697 Y130.757 E10.7612
G1 X141.091 Y131.81 E10.80161
G1 X140.809 Y132.264 E10.81939
G1 X140.315 Y133.016 E10.84931
G1 X140.019 Y133.442 E10.86657
G1 X139.51 Y134.138 E10.89525
G1 X139.208 Y134.53 E10.9117
G1 X138.709 Y135.149 E10.93815
G1 X138.374 Y135.542 E10.95532
G1 X137.796 Y136.19 E10.98421
G1 X137.447 Y136.563 E11.0012
G1 X136.864 Y137.155 E11.02883
G1 X136.525 Y137.484 E11.04454
G1 X135.952 Y138.015 E11.07053
G1 X135.548 Y138.371 E11.08844
G1 X134.835 Y138.966 E11.11932
G1 X134.417 Y139.298 E11.13708
G1 X133.756 Y139.795 E11.16458
G1 X133.341 Y140.09 E11.18152
G1 X132.645 Y140.562 E11.20949
G1 X132.237 Y140.825 E11.22563
G1 X131.517 Y141.265 E11.2537
G1 X131.054 Y141.532 E11.27147
G1 X130.294 Y141.945 E11.30024
G1 X129.852 Y142.171 E11.31675
G1 X129.112 Y142.528 E11.34408
G1 X128.637 Y142.743 E11.36142
G1 X127.842 Y143.079 E11.39013
G1 X127.395 Y143.255 E11.40611
G1 X126.637 Y143.535 E11.43298
G1 X126.108 Y143.714 E11.45156
G1 X125.248 Y143.98 E11.4815
G1 X124.777 Y144.113 E11.49778
G1 X123.97 Y144.322 E11.5255
G1 X123.46 Y144.44 E11.54291
G1 X122.652 Y144.606 E11.57035
G1 X122.165 Y144.693 E11.5868
G1 X121.322 Y144.825 E11.61518
G0 F6000 X121.27 Y144.428
G1 F1200 X120.754 Y144.495 E11.63249
G1 X119.89 Y144.585 E11.66138
G1 X119.428 Y144.623 E11.6768
G1 X118.744 Y144.663 E11.69959
G1 X118.296 Y144.679 E11.7145
G1 X117.461 Y144.691 E11.74227
G1 X116.92 Y144.684 E11.76027
G1 X115.989 Y144.648 E11.79126
G1 X115.473 Y144.615 E11.80846
G1 X114.636 Y144.54 E11.83641
G1 X114.134 Y144.483 E11.85321
G1 X113.333 Y144.371 E11.88011
G1 X112.821 Y144.286 E11.89737
G1 X111.988 Y144.126 E11.92558
G1 X111.542 Y144.03 E11.94076
G1 X110.755 Y143.842 E11.96767
G1 X110.239 Y143.704 E11.98544
G1 X109.405 Y143.458 E12.01436
